assets/img/icons/duotone-icons/Devices/Android.svg

<?xml version="1.0" encoding="UTF-8"?>
<svg width="24px" height="24px" viewBox="0 0 24 24" version="1.1" xmlns="http://www.w3.org/2000/svg" xmlns:xlink="http://www.w3.org/1999/xlink">
    <!-- Generator: Sketch 52.2 (67145) - http://www.bohemiancoding.com/sketch -->
    <title>Stockholm-icons / Devices / Android</title>
    <desc>Created with Sketch.</desc>
    <g id="Stockholm-icons-/-Devices-/-Android" stroke="none" stroke-width="1" fill="none" fill-rule="evenodd">
        <rect id="bound" x="0" y="0" width="24" height="24"></rect>
        <path d="M7.5,4 L7.5,19 L16.5,19 L16.5,4 L7.5,4 Z M7.71428571,2 L16.2857143,2 C17.2324881,2 18,2.8954305 18,4 L18,20 C18,21.1045695 17.2324881,22 16.2857143,22 L7.71428571,22 C6.76751186,22 6,21.1045695 6,20 L6,4 C6,2.8954305 6.76751186,2 7.71428571,2 Z" id="Combined-Shape" fill="#335EEA"></path>
        <polygon id="Combined-Shape" fill="#335EEA" opacity="0.3" points="7.5 4 7.5 19 16.5 19 16.5 4"></polygon>
    </g>
</svg>

<svg width="24" height="24" viewBox="0 0 24 24" xmlns="http://www.w3.org/2000/svg"><g fill="none" fill-rule="evenodd"><path d="M0 0h24v24H0z"/><path d="M7.5 4v15h9V4h-9zm.214-2h8.572C17.232 2 18 2.895 18 4v16c0 1.105-.768 2-1.714 2H7.714C6.768 22 6 21.105 6 20V4c0-1.105.768-2 1.714-2z" fill="#335EEA"/><path fill="#335EEA" opacity=".3" d="M7.5 4v15h9V4z"/></g></svg>
